dist/svgs/org-medal.svg

<svg xmlns="http://www.w3.org/2000/svg" viewBox="0 0 512 512"><path d="M472 422q5 9-2 19-7 9-17 8l-69-3-42 56q-6 7-16 7h-2q-11-2-16-11l-52-118-52 118q-5 9-16 11h-2q-10 0-16-7l-42-56-69 3q-10 1-17-8-7-10-2-19l73-164q-3-5-6-10.5t-5-11.5q-7-15-10-31.5T89 171q0-36 13-66 14-31 36-53 11-11 24.5-20.5T191 16q30-13 65-13t65 13q15 6 28.5 15.5T374 52q22 22 36 53 13 30 13 66 0 17-3 33.5T410 236q-2 6-5 11.5t-6 10.5zm-240-85q-20-3-41-11-27-11-51-34L88 409l49-2q9-2 16 7l29 38zm24-37q26 0 49-9.5t41-28.5q19-18 28.5-41.5T384 171q0-54-38-92-37-37-90-37t-90 37q-38 38-38 92 0 26 9.5 49.5T166 262q18 19 41 28.5t49 9.5zm168 109l-52-117q-24 23-51 34-21 8-41 11l50 115 29-38q7-9 16-7zM256 97q30 0 51.5 21.5T329 171t-21.5 52.5T256 245t-51.5-21.5T183 171t21.5-52.5T256 97zm0 109q14 0 24-10.5t10-24.5-10-24.5-24-10.5-24 10.5-10 24.5 10 24.5 24 10.5z"/></svg>

<?xml version="1.0" encoding="UTF-8" standalone="no"?><svg   xmlns:svg="http://www.w3.org/2000/svg"   xmlns="http://www.w3.org/2000/svg"   version="1.1"   width="512"   height="512"   viewBox="0 0 512 512">  <path     d="M472 422Q477 431 470 441Q463 450 453 449L384 446L342 502Q336 509 326 509H324Q313 507 308 498L256 380L204 498Q199 507 188 509H186Q176 509 170 502L128 446L59 449Q49 450 42 441Q35 431 40 422L113 258Q110 253 107 247.5T102 236Q95 221 92 204.5T89 171Q89 135 102 105Q116 74 138 52Q149 41 162.5 31.5T191 16Q221 3 256 3T321 16Q336 22 349.5 31.5T374 52Q396 74 410 105Q423 135 423 171Q423 188 420 204.5T410 236Q408 242 405 247.5T399 258zM232 337Q212 334 191 326Q164 315 140 292L88 409L137 407Q146 405 153 414L182 452zM256 300Q282 300 305 290.5T346 262Q365 244 374.5 220.5T384 171Q384 117 346 79Q309 42 256 42T166 79Q128 117 128 171Q128 197 137.5 220.5T166 262Q184 281 207 290.5T256 300zM424 409L372 292Q348 315 321 326Q300 334 280 337L330 452L359 414Q366 405 375 407zM256 97Q286 97 307.5 118.5T329 171T307.5 223.5T256 245T204.5 223.5T183 171T204.5 118.5T256 97zM256 206Q270 206 280 195.5T290 171T280 146.5T256 136T232 146.5T222 171T232 195.5T256 206z"     id="org-medal" /></svg>
